; generated by PrusaSlicer 2.9.0 on 2025-02-18 at 18:11:32 UTC

; 

; external perimeters extrusion width = 0.45mm
; perimeters extrusion width = 0.45mm
; infill extrusion width = 0.45mm
; solid infill extrusion width = 0.45mm
; top infill extrusion width = 0.40mm
; first layer extrusion width = 0.42mm

M104 S200 ; set temperature
;TYPE:Custom
G28 ; home all axes
G1 Z5 F5000 ; lift nozzle
M109 S200 ; set temperature and wait for it to be reached
G21 ; set units to millimeters
G90 ; use absolute coordinates
M82 ; use absolute distances for extrusion
G92 E0
; Filament gcode
M107
;LAYER_CHANGE
;Z:0.35
;HEIGHT:0.35
G1 E-2 F2400
G1 Z.35 F7800
G1 X0 Y20.668
G1 E.00001 F2400
;TYPE:Skirt/Brim
;WIDTH:0.42
G1 F1800
G1 X-23.25 Y20.668 E1.16682
G1 X-24.349 Y20.56 E1.22224
G1 X-25.132 Y20.389 E1.26246
G1 X-26.718 Y19.777 E1.34778
G1 X-27.665 Y19.209 E1.4032
G1 X-28.3 Y18.72 E1.44342
G1 X-28.952 Y18.099 E1.48861
G1 X-29.652 Y17.247 E1.54395
G1 X-30.134 Y16.486 E1.58916
G1 X-30.642 Y15.395 E1.64956
G1 X-30.984 Y14.243 E1.70987
G1 X-31.153 Y13.054 E1.77014
G1 X-31.153 Y-13.052 E3.08029
G1 X-30.863 Y-14.726 E3.16555
G1 X-30.491 Y-15.765 E3.22093
G1 X-30.134 Y-16.485 E3.26126
G1 X-29.156 Y-17.874 E3.34651
G1 X-28.599 Y-18.452 E3.38679
G1 X-27.746 Y-19.153 E3.4422
G1 X-26.72 Y-19.776 E3.50244
G1 X-25.61 Y-20.244 E3.5629
G1 X-24.445 Y-20.543 E3.62326
G1 X-23.25 Y-20.668 E3.68356
G1 X23.151 Y-20.671 E6.01224
G1 X24.444 Y-20.543 E6.07745
G1 X25.895 Y-20.142 E6.153
G1 X27.33 Y-19.43 E6.23339
G1 X28.375 Y-18.656 E6.29865
G1 X29.472 Y-17.489 E6.37903
G1 X30.277 Y-16.218 E6.45453
G1 X30.775 Y-15.017 E6.51978
G1 X31.116 Y-13.452 E6.60016
G1 X31.172 Y-12.5 E6.64802
G1 X31.172 Y12.5 E7.90267
G1 X31.116 Y13.452 E7.95053
G1 X30.775 Y15.017 E8.03091
G1 X30.086 Y16.571 E8.11622
G1 X29.156 Y17.875 E8.1966
G1 X28.599 Y18.452 E8.23685
G1 X27.746 Y19.153 E8.29226
G1 X26.718 Y19.777 E8.35261
G1 X25.61 Y20.244 E8.41295
G1 X24.445 Y20.543 E8.47331
G1 X23.25 Y20.668 E8.53361
G1 X.06 Y20.668 E9.69742
G1 E7.69742 F2400
G92 E0
G1 X.06 Y20.668 F7800
G92 E0
G1 X-3.406 Y-.497
G1 E2 F2400
;TYPE:Perimeter
;WIDTH:0.42
G1 F1800
G1 X-3.4 Y-.567 E2.00353
G1 X-3.192 Y-1.297 E2.04162
G1 X-2.813 Y-1.989 E2.08122
G1 X-2.294 Y-2.571 E2.12035
G1 X-1.641 Y-3.029 E2.16038
G1 X-.945 Y-3.313 E2.19811
G1 X-.164 Y-3.441 E2.23783
G1 X.404 Y-3.424 E2.26635
G1 X1.29 Y-3.248 E2.31168
G1 X1.897 Y-3.011 E2.34438
G1 X2.473 Y-2.65 E2.3785
G1 X2.877 Y-2.293 E2.40556
G1 X3.373 Y-1.64 E2.44671
G1 X3.695 Y-.975 E2.48379
G1 X3.874 Y-.293 E2.51918
G1 X3.908 Y.7 E2.56904
G1 X3.697 Y1.668 E2.61876
G1 X3.596 Y1.911 E2.63197
G1 X3.302 Y2.387 E2.66005
G1 X2.891 Y2.868 E2.6918
G1 X2.349 Y3.326 E2.72741
G1 X1.737 Y3.683 E2.76297
G1 X1.134 Y3.906 E2.79524
G1 X.272 Y3.982 E2.83867
G1 X-.425 Y3.907 E2.87385
G1 X-1.097 Y3.708 E2.90902
G1 X-1.793 Y3.344 E2.94844
G1 X-2.379 Y2.866 E2.98639
G1 X-2.863 Y2.267 E3.02504
G1 X-3.202 Y1.602 E3.0625
G1 X-3.26 Y1.439 E3.07118
G1 X-3.386 Y.934 E3.0973
G1 X-3.449 Y.044 E3.14208
G1 X-3.41 Y-.437 E3.1663
G1 X-3.41 Y-.437 F7800
G1 X-3.064 Y-.447
G1 F1800
G1 X-3.057 Y-.535 E3.17073
G1 X-2.863 Y-1.194 E3.20521
G1 X-2.515 Y-1.815 E3.24094
G1 X-2.044 Y-2.334 E3.27611
G1 X-1.451 Y-2.741 E3.31221
G1 X-.824 Y-2.991 E3.34609
G1 X-.118 Y-3.1 E3.38194
G1 X.384 Y-3.08 E3.40715
G1 X1.219 Y-2.91 E3.44991
G1 X1.764 Y-2.693 E3.47935
G1 X2.283 Y-2.362 E3.51024
G1 X2.652 Y-2.024 E3.53535
G1 X3.097 Y-1.432 E3.57252
G1 X3.38 Y-.833 E3.60577
G1 X3.539 Y-.212 E3.63794
G1 X3.563 Y.704 E3.68393
G1 X3.362 Y1.586 E3.72933
G1 X3.047 Y2.15 E3.76175
G1 X2.63 Y2.642 E3.79412
G1 X2.132 Y3.059 E3.82672
G1 X1.569 Y3.382 E3.85929
G1 X1.075 Y3.567 E3.88576
G1 X.254 Y3.638 E3.92712
G1 X-.382 Y3.564 E3.95925
G1 X-.993 Y3.379 E3.99129
G1 X-1.627 Y3.042 E4.02732
G1 X-2.154 Y2.604 E4.06171
G1 X-2.59 Y2.057 E4.09682
G1 X-2.926 Y1.356 E4.13583
G1 X-3.052 Y.85 E4.162
G1 X-3.104 Y.026 E4.20344
G1 X-3.069 Y-.387 E4.22424
G1 X-3.069 Y-.387 F7800
G1 X-2.723 Y-.397
;TYPE:External perimeter
G1 F1800
G1 X-2.713 Y-.502 E4.22953
G1 X-2.533 Y-1.092 E4.26049
G1 X-2.218 Y-1.641 E4.29226
G1 X-1.793 Y-2.097 E4.32354
G1 X-1.261 Y-2.454 E4.35569
G1 X-.703 Y-2.668 E4.38568
G1 X-.071 Y-2.758 E4.41772
G1 X.389 Y-2.732 E4.44084
G1 X1.149 Y-2.573 E4.47981
G1 X1.632 Y-2.375 E4.50601
G1 X2.093 Y-2.074 E4.53364
G1 X2.377 Y-1.816 E4.5529
G1 X2.822 Y-1.225 E4.59003
G1 X3.065 Y-.692 E4.61943
G1 X3.203 Y-.132 E4.64837
G1 X3.218 Y.709 E4.69058
G1 X3.028 Y1.503 E4.73155
G1 X2.752 Y1.97 E4.75877
G1 X2.369 Y2.417 E4.78831
G1 X1.914 Y2.791 E4.81787
G1 X1.4 Y3.081 E4.84749
G1 X1.015 Y3.227 E4.86815
G1 X.237 Y3.293 E4.90733
G1 X-.338 Y3.222 E4.93641
G1 X-.888 Y3.051 E4.96532
G1 X-1.461 Y2.739 E4.99806
G1 X-1.93 Y2.342 E5.0289
G1 X-2.317 Y1.846 E5.06047
G1 X-2.591 Y1.272 E5.09239
G1 X-2.717 Y.767 E5.11851
G1 X-2.76 Y.008 E5.15666
G1 X-2.728 Y-.338 E5.1741
G1 X-2.64 Y-.728 F7800
G1 E3.1741 F2400
G92 E0
G1 X-23.945 Y-13.005 F7800
G1 E2 F2400
;TYPE:Perimeter
G1 F1800
G1 X-23.858 Y-13.165 E2.00914
G1 X-23.571 Y-13.431 E2.02878
G1 X-23.255 Y-13.562 E2.04595
G1 X-22.946 Y-13.6 E2.06157
G1 X22.897 Y-13.6 E4.36224
G1 X23.214 Y-13.575 E4.3782
G1 X23.609 Y-13.411 E4.39966
G1 X23.875 Y-13.162 E4.41795
G1 X24.063 Y-12.766 E4.43995
G1 X24.098 Y-12.447 E4.45606
G1 X24.098 Y12.373 E5.70167
G1 X24.046 Y12.818 E5.72415
G1 X23.858 Y13.165 E5.74396
G1 X23.571 Y13.431 E5.7636
G1 X23.255 Y13.562 E5.78077
G1 X22.946 Y13.6 E5.79639
G1 X-22.842 Y13.6 E8.0943
G1 X-23.266 Y13.561 E8.11567
G1 X-23.615 Y13.394 E8.13509
G1 X-23.865 Y13.147 E8.15273
G1 X-24.042 Y12.828 E8.17104
G1 X-24.1 Y12.435 E8.19098
G1 X-24.098 Y-12.373 E9.43599
G1 X-24.046 Y-12.818 E9.45847
G1 X-23.973 Y-12.952 E9.46613
G1 X-23.973 Y-12.952 F7800
G1 X-24.265 Y-13.176
G1 F1800
G1 X-24.236 Y-13.241 E9.4697
G1 X-24.019 Y-13.519 E9.4874
G1 X-23.746 Y-13.732 E9.50478
G1 X-23.344 Y-13.899 E9.52663
G1 X-22.967 Y-13.945 E9.54569
G1 X22.897 Y-13.945 E11.84741
G1 X23.281 Y-13.915 E11.86674
G1 X23.677 Y-13.766 E11.88797
G1 X24.025 Y-13.516 E11.90947
G1 X24.206 Y-13.28 E11.9244
G1 X24.399 Y-12.85 E11.94805
G1 X24.443 Y-12.447 E11.9684
G1 X24.443 Y12.421 E13.21642
G1 X24.379 Y12.919 E13.24162
G1 X24.236 Y13.241 E13.2593
G1 X24.019 Y13.519 E13.277
G1 X23.746 Y13.732 E13.29438
G1 X23.344 Y13.899 E13.31623
G1 X22.967 Y13.945 E13.33529
G1 X-22.842 Y13.945 E15.63425
G1 X-23.35 Y13.898 E15.65985
G1 X-23.679 Y13.771 E15.67755
G1 X-23.962 Y13.572 E15.69491
G1 X-24.239 Y13.235 E15.7168
G1 X-24.376 Y12.925 E15.73381
G1 X-24.445 Y12.461 E15.75735
G1 X-24.443 Y-12.421 E17.00607
G1 X-24.379 Y-12.919 E17.03127
G1 X-24.289 Y-13.121 E17.04237
G1 X-24.289 Y-13.121 F7800
G1 X-24.57 Y-13.339
;TYPE:External perimeter
G1 F1800
G1 X-24.534 Y-13.42 E17.04682
G1 X-24.264 Y-13.765 E17.06881
G1 X-23.921 Y-14.033 E17.09066
G1 X-23.432 Y-14.235 E17.11721
G1 X-22.988 Y-14.29 E17.13966
G1 X22.897 Y-14.29 E19.44244
G1 X23.349 Y-14.255 E19.46519
G1 X23.839 Y-14.07 E19.49148
G1 X24.267 Y-13.764 E19.51788
G1 X24.527 Y-13.415 E19.53972
G1 X24.735 Y-12.935 E19.56597
G1 X24.788 Y-12.447 E19.5906
G1 X24.788 Y12.421 E20.83862
G1 X24.711 Y13.02 E20.86893
G1 X24.534 Y13.42 E20.89088
G1 X24.264 Y13.765 E20.91287
G1 X23.921 Y14.033 E20.93472
G1 X23.432 Y14.235 E20.96127
G1 X22.988 Y14.29 E20.98372
G1 X-22.871 Y14.29 E23.28519
G1 X-23.435 Y14.235 E23.31363
G1 X-23.843 Y14.078 E23.33557
G1 X-24.199 Y13.827 E23.35743
G1 X-24.535 Y13.418 E23.38399
G1 X-24.711 Y13.022 E23.40574
G1 X-24.79 Y12.486 E23.43293
G1 X-24.788 Y-12.421 E24.68291
G1 X-24.711 Y-13.02 E24.71322
G1 X-24.594 Y-13.284 E24.72771
G1 X-24.374 Y-13.618 F7800
G1 E22.72771 F2400
G92 E0
G1 X22.687 Y-13.497 F7800
G1 E2 F2400
;TYPE:Solid infill
;WIDTH:0.420875
G1 F1800
G1 X23.839 Y-12.345 E2.08197
G1 X23.839 Y-11.856 E2.10657
G1 X22.354 Y-13.342 E2.21227
G1 X21.865 Y-13.342 E2.23687
G1 X23.839 Y-11.367 E2.37736
G1 X23.839 Y-10.878 E2.40196
G1 X21.376 Y-13.342 E2.57725
G1 X20.887 Y-13.342 E2.60185
G1 X23.839 Y-10.389 E2.81193
G1 X23.839 Y-9.9 E2.83653
G1 X20.398 Y-13.342 E3.08141
G1 X19.909 Y-13.342 E3.10601
G1 X23.839 Y-9.411 E3.38568
G1 X23.839 Y-8.922 E3.41028
G1 X19.42 Y-13.342 E3.72474
G1 X18.931 Y-13.342 E3.74934
G1 X23.839 Y-8.433 E4.0986
G1 X23.839 Y-7.944 E4.1232
G1 X18.442 Y-13.342 E4.50725
G1 X17.953 Y-13.342 E4.53185
G1 X23.839 Y-7.455 E4.9507
G1 X23.839 Y-6.966 E4.9753
G1 X17.464 Y-13.342 E5.42894
G1 X16.975 Y-13.342 E5.45354
G1 X23.839 Y-6.477 E5.94197
G1 X23.839 Y-5.988 E5.96657
G1 X16.486 Y-13.342 E6.4898
G1 X15.997 Y-13.342 E6.5144
G1 X23.839 Y-5.499 E7.07242
G1 X23.839 Y-5.01 E7.09702
G1 X15.508 Y-13.342 E7.68984
G1 X15.019 Y-13.342 E7.71444
G1 X23.839 Y-4.521 E8.34205
G1 X23.839 Y-4.032 E8.36665
G1 X14.53 Y-13.342 E9.02905
G1 X14.041 Y-13.342 E9.05365
G1 X23.839 Y-3.543 E9.75085
G1 X23.839 Y-3.054 E9.77545
G1 X13.552 Y-13.342 E10.50744
G1 X13.063 Y-13.342 E10.53204
G1 X23.839 Y-2.565 E11.29883
G1 X23.839 Y-2.076 E11.32343
G1 X12.574 Y-13.342 E12.12501
G1 X12.085 Y-13.342 E12.14961
G1 X23.839 Y-1.587 E12.98598
G1 X23.839 Y-1.098 E13.01058
G1 X11.596 Y-13.342 E13.88175
G1 X11.107 Y-13.342 E13.90635
G1 X23.839 Y-.609 E14.81231
G1 X23.839 Y-.12 E14.83691
G1 X10.618 Y-13.342 E15.77767
G1 X10.129 Y-13.342 E15.80227
G1 X23.839 Y.369 E16.77782
G1 X23.839 Y.858 E16.80242
G1 X9.64 Y-13.342 E17.81277
G1 X9.151 Y-13.342 E17.83737
G1 X23.839 Y1.347 E18.88251
G1 X23.839 Y1.836 E18.90711
G1 X8.662 Y-13.342 E19.98704
G1 X8.173 Y-13.342 E20.01164
G1 X23.839 Y2.325 E21.12637
G1 X23.839 Y2.814 E21.15097
G1 X7.684 Y-13.342 E22.30049
G1 X7.195 Y-13.342 E22.32509
G1 X23.839 Y3.303 E23.50941
G1 X23.839 Y3.792 E23.53401
G1 X6.706 Y-13.342 E24.75312
G1 X6.217 Y-13.342 E24.77772
G1 X23.839 Y4.281 E26.03162
G1 X23.839 Y4.77 E26.05622
G1 X5.728 Y-13.342 E27.34492
G1 X5.239 Y-13.342 E27.36952
G1 X23.839 Y5.258 E28.69298
G1 X23.839 Y5.747 E28.71758
G1 X4.75 Y-13.342 E30.07583
G1 X4.261 Y-13.342 E30.10043
G1 X23.839 Y6.236 E31.49348
G1 X23.839 Y6.725 E31.51808
G1 X3.772 Y-13.342 E32.94592
G1 X3.283 Y-13.342 E32.97052
G1 X23.839 Y7.214 E34.43315
G1 X23.839 Y7.703 E34.45775
G1 X2.794 Y-13.342 E35.95518
G1 X2.305 Y-13.342 E35.97978
G1 X23.839 Y8.192 E37.512
G1 X23.839 Y8.681 E37.5366
G1 X1.816 Y-13.342 E39.10362
G1 X1.327 Y-13.342 E39.12822
G1 X23.839 Y9.17 E40.73003
G1 X23.839 Y9.659 E40.75463
G1 X.838 Y-13.342 E42.39123
G1 X.349 Y-13.342 E42.41583
G1 X23.839 Y10.148 E44.08723
G1 X23.839 Y10.637 E44.11183
G1 X-.14 Y-13.342 E45.81802
G1 X-.629 Y-13.342 E45.84262
G1 X23.839 Y11.126 E47.58361
G1 X23.839 Y11.615 E47.60821
G1 X-1.118 Y-13.342 E49.38399
G1 X-1.607 Y-13.342 E49.40859
G1 X23.839 Y12.104 E51.21916
G1 X23.825 Y12.579 E51.24307
G1 X-2.096 Y-13.342 E53.08744
G1 X-2.585 Y-13.342 E53.11204
G1 X23.702 Y12.945 E54.98245
G1 X23.589 Y13.089 E54.99166
G1 X23.459 Y13.191 E54.99997
G1 X-3.074 Y-13.342 E56.88789
G1 X-3.563 Y-13.342 E56.91249
G1 X23.1 Y13.321 E58.80966
G1 X22.93 Y13.342 E58.81828
G1 X22.632 Y13.342 E58.83327
G1 X-4.052 Y-13.342 E60.73193
G1 X-4.541 Y-13.342 E60.75653
G1 X22.143 Y13.342 E62.65519
G1 X21.654 Y13.342 E62.67979
G1 X-5.03 Y-13.342 E64.57845
G1 X-5.519 Y-13.342 E64.60305
G1 X21.165 Y13.342 E66.50171
G1 X20.676 Y13.342 E66.52631
G1 X-6.008 Y-13.342 E68.42497
G1 X-6.497 Y-13.342 E68.44957
G1 X20.187 Y13.342 E70.34823
G1 X19.698 Y13.342 E70.37283
G1 X-6.986 Y-13.342 E72.27149
G1 X-7.474 Y-13.342 E72.29604
G1 X19.209 Y13.342 E74.19467
G1 X18.72 Y13.342 E74.21927
G1 X-7.963 Y-13.342 E76.1179
G1 X-8.452 Y-13.342 E76.1425
G1 X1.408 Y-3.481 E76.84411
G1 X.781 Y-3.619 E76.87641
G1 X-8.941 Y-13.342 E77.5682
G1 X-9.43 Y-13.342 E77.5928
G1 X.221 Y-3.69 E78.27954
G1 X.014 Y-3.706 E78.28999
G1 X-.266 Y-3.688 E78.30411
G1 X-9.919 Y-13.342 E78.99099
G1 X-10.408 Y-13.342 E79.01559
G1 X-.693 Y-3.626 E79.70688
G1 X-.918 Y-3.593 E79.71832
G1 X-1.086 Y-3.53 E79.72735
G1 X-10.897 Y-13.342 E80.42547
G1 X-11.386 Y-13.342 E80.45007
G1 X-1.441 Y-3.397 E81.15769
G1 X-1.677 Y-3.308 E81.17038
G1 X-1.776 Y-3.242 E81.17637
G1 X-11.875 Y-13.342 E81.89499
G1 X-12.364 Y-13.342 E81.91959
G1 X-2.07 Y-3.048 E82.65205
G1 X-2.365 Y-2.853 E82.66984
G1 X-12.853 Y-13.342 E83.41613
G1 X-13.342 Y-13.342 E83.44073
G1 X-2.607 Y-2.606 E84.2046
G1 X-2.844 Y-2.355 E84.22197
G1 X-13.831 Y-13.342 E85.00373
G1 X-14.32 Y-13.342 E85.02833
G1 X-3.055 Y-2.076 E85.82991
G1 X-3.236 Y-1.769 E85.84784
G1 X-14.809 Y-13.342 E86.6713
G1 X-15.298 Y-13.342 E86.6959
G1 X-3.405 Y-1.448 E87.54217
G1 X-3.524 Y-1.079 E87.56168
G1 X-15.787 Y-13.342 E88.43424
G1 X-16.276 Y-13.342 E88.45884
G1 X-3.637 Y-.703 E89.35815
G1 X-3.684 Y-.26 E89.38056
G1 X-16.765 Y-13.342 E90.31136
G1 X-17.254 Y-13.342 E90.33596
G1 X-3.696 Y.217 E91.3007
G1 X-3.668 Y.733 E91.3267
G1 X-17.743 Y-13.342 E92.32819
G1 X-18.232 Y-13.342 E92.35279
G1 X-3.33 Y1.56 E93.41312
G1 E91.41312 F2400
G92 E0
G1 X-3.33 Y1.56 F7800
G1 X3.711 Y-1.178
G1 E2 F2400
G1 F1800
G1 X18.231 Y13.342 E3.03315
G1 X17.742 Y13.342 E3.05775
G1 X4.143 Y-.257 E4.02537
G1 X4.155 Y.244 E4.05058
G1 X17.253 Y13.342 E4.98255
G1 X16.764 Y13.342 E5.00715
G1 X4.164 Y.741 E5.90372
G1 X4.136 Y.972 E5.91543
G1 X4.088 Y1.155 E5.92495
G1 X16.275 Y13.342 E6.7921
G1 X15.786 Y13.342 E6.8167
G1 X3.988 Y1.543 E7.65621
G1 X3.877 Y1.922 E7.67608
G1 X15.297 Y13.342 E8.48865
G1 X14.808 Y13.342 E8.51325
G1 X3.695 Y2.229 E9.30398
G1 X3.514 Y2.536 E9.32191
G1 X14.319 Y13.342 E10.09076
G1 X13.83 Y13.342 E10.11536
G1 X3.287 Y2.799 E10.86553
G1 X3.061 Y3.061 E10.88294
G1 X13.341 Y13.342 E11.61443
G1 X12.852 Y13.342 E11.63903
G1 X2.8 Y3.29 E12.35427
G1 X2.532 Y3.511 E12.37175
G1 X12.363 Y13.342 E13.07126
G1 X11.874 Y13.342 E13.09586
G1 X2.233 Y3.7 E13.78189
G1 X1.915 Y3.872 E13.80008
G1 X11.385 Y13.342 E14.4739
G1 X10.896 Y13.342 E14.4985
G1 X1.583 Y4.029 E15.16115
G1 X1.38 Y4.106 E15.17207
G1 X1.21 Y4.144 E15.18083
G1 X10.407 Y13.342 E15.83527
G1 X9.918 Y13.342 E15.85987
G1 X.785 Y4.209 E16.50972
G1 X.324 Y4.236 E16.53295
G1 X9.429 Y13.342 E17.18084
G1 X8.94 Y13.342 E17.20544
G1 X-.21 Y4.192 E17.8565
G1 X-.462 Y4.163 E17.86926
G1 X-.825 Y4.066 E17.88816
G1 X8.451 Y13.342 E18.54818
G1 X7.962 Y13.342 E18.57278
G1 X-1.683 Y3.697 E19.25906
G1 X-2.018 Y3.509 E19.27839
G1 X-2.633 Y2.982 E19.31914
G1 X-3.137 Y2.325 E19.3608
G1 X-3.213 Y2.167 E19.36962
G1 X-18.721 Y-13.342 E20.47311
G1 X-19.21 Y-13.342 E20.49771
G1 X7.473 Y13.342 E22.39634
G1 X6.984 Y13.342 E22.42094
G1 X-19.699 Y-13.342 E24.31957
G1 X-20.188 Y-13.342 E24.34417
G1 X6.495 Y13.342 E26.2428
G1 X6.006 Y13.342 E26.2674
G1 X-20.677 Y-13.342 E28.16603
G1 X-21.166 Y-13.342 E28.19063
G1 X5.517 Y13.342 E30.08926
G1 X5.028 Y13.342 E30.11386
G1 X-21.655 Y-13.342 E32.01249
G1 X-22.144 Y-13.342 E32.03709
G1 X4.539 Y13.342 E33.93572
G1 X4.05 Y13.342 E33.96032
G1 X-22.633 Y-13.342 E35.85895
G1 X-22.93 Y-13.342 E35.87389
G1 X-23.101 Y-13.32 E35.88256
G1 X3.561 Y13.342 E37.77966
G1 X3.072 Y13.342 E37.80426
G1 X-23.46 Y-13.19 E39.69211
G1 X-23.589 Y-13.089 E39.70035
G1 X-23.702 Y-12.944 E39.7096
G1 X2.583 Y13.342 E41.57991
G1 X2.094 Y13.342 E41.60451
G1 X-23.826 Y-12.578 E43.44881
G1 X-23.839 Y-12.103 E43.47272
G1 X1.605 Y13.342 E45.28319
G1 X1.116 Y13.342 E45.30779
G1 X-23.839 Y-11.614 E47.08346
G1 X-23.839 Y-11.125 E47.10806
G1 X.627 Y13.342 E48.84894
G1 X.138 Y13.342 E48.87354
G1 X-23.839 Y-10.636 E50.57963
G1 X-23.839 Y-10.147 E50.60423
G1 X-.351 Y13.342 E52.27552
G1 X-.84 Y13.342 E52.30012
G1 X-23.839 Y-9.658 E53.93662
G1 X-23.839 Y-9.169 E53.96122
G1 X-1.329 Y13.342 E55.56292
G1 X-1.818 Y13.342 E55.58752
G1 X-23.84 Y-8.68 E57.15446
G1 X-23.84 Y-8.191 E57.17906
G1 X-2.307 Y13.342 E58.71121
G1 X-2.796 Y13.342 E58.73581
G1 X-23.84 Y-7.702 E60.23317
G1 X-23.84 Y-7.213 E60.25777
G1 X-3.285 Y13.342 E61.72033
G1 X-3.774 Y13.342 E61.74493
G1 X-23.84 Y-6.725 E63.17273
G1 X-23.84 Y-6.236 E63.19733
G1 X-4.263 Y13.342 E64.59034
G1 X-4.752 Y13.342 E64.61494
G1 X-23.84 Y-5.747 E65.97316
G1 X-23.84 Y-5.258 E65.99776
G1 X-5.241 Y13.342 E67.32118
G1 X-5.73 Y13.342 E67.34578
G1 X-23.84 Y-4.769 E68.63441
G1 X-23.84 Y-4.28 E68.65901
G1 X-6.219 Y13.342 E69.91284
G1 X-6.708 Y13.342 E69.93744
G1 X-23.84 Y-3.791 E71.15648
G1 X-23.84 Y-3.302 E71.18108
G1 X-7.197 Y13.342 E72.36532
G1 X-7.686 Y13.342 E72.38992
